src/next/cmd/sc_gluehorzaligncenter.svg

<svg height="16" width="16" xmlns="http://www.w3.org/2000/svg" xmlns:xlink="http://www.w3.org/1999/xlink"><linearGradient id="a" gradientTransform="matrix(.06477706 0 0 .1431311 -68.204115 -54.65389)" gradientUnits="userSpaceOnUse" x1="399.77466" x2="399.77466" y1="1164.6696" y2="549.06134"><stop offset="0" stop-color="#a7a7a9"/><stop offset=".5" stop-color="#7d7d83"/><stop offset="1" stop-color="#aaaab1"/></linearGradient><linearGradient id="b" gradientTransform="matrix(.5000001 0 0 1.0000001 -64.000001 -132)" gradientUnits="userSpaceOnUse" x1="-63.999985" x2="124.09152" y1="135.99998" y2="27.999992"><stop offset="0" stop-color="#fff"/><stop offset=".42597079" stop-color="#fff"/><stop offset=".5892781" stop-color="#f1f1f1"/><stop offset=".80219781" stop-color="#eaeaea"/><stop offset="1" stop-color="#dfdfdf"/></linearGradient><linearGradient id="c" gradientTransform="matrix(1.9227921 0 0 2.0000003 -98.656196 -16)" gradientUnits="userSpaceOnUse" x1="102.31124" x2="74.330322" y1="-5.830213" y2="32"><stop offset="0" stop-color="#fff"/><stop offset="1" stop-color="#fff" stop-opacity="0"/></linearGradient><linearGradient id="d" gradientTransform="matrix(.540151 -.540151 .48613592 .48613592 109.29919 95.671562)" gradientUnits="userSpaceOnUse" x1="-21.213205" x2="25.455845" y1="-80.024391" y2="-104.6518"><stop offset="0" stop-color="#0968ef"/><stop offset="1" stop-color="#aecffc"/></linearGradient><g transform="scale(.125)"><rect fill="url(#a)" height="112" rx="3.632653" transform="rotate(-90)" width="112" x="-120" y="8"/><rect fill="url(#b)" fill-rule="evenodd" height="96" rx="1.6" transform="matrix(0 -1 -1 0 0 0)" width="96" x="-112" y="-112"/><path d="m77.279287 16c-20.542276 18.856164-39.798762 39.251232-51.795211 64h52.335997c2.931239-23.693961 12.081748-45.098312 24.695847-64z" fill="url(#c)" fill-rule="evenodd"/><rect fill="#00bf00" height="52" rx="2.25" ry="0" transform="matrix(-1 0 0 1 164 32)" width="8.5" x="100" y="28"/><rect fill="#00bf00" height="24" rx="3.437501" transform="matrix(0 -1 -1 0 164 32)" width="20.000004" x="-88" y="92"/><path d="m76.970564 84.970562-16.970564-16.970562-16.97056 16.970563-5.656856-5.656855 16.970562-16.970562-16.970562-16.970564 5.656856-5.656854 16.97056 16.970563 16.970564-16.970563 5.65686 5.656856-16.970569 16.970562 16.970569 16.97056z" fill="url(#d)"/></g></svg>

<?xml version="1.0" encoding="UTF-8" standalone="no"?>
<!-- Created with Inkscape (http://www.inkscape.org/) -->

<svg
   xmlns:dc="http://purl.org/dc/elements/1.1/"
   xmlns:cc="http://creativecommons.org/ns#"
   xmlns:rdf="http://www.w3.org/1999/02/22-rdf-syntax-ns#"
   xmlns:svg="http://www.w3.org/2000/svg"
   xmlns="http://www.w3.org/2000/svg"
   xmlns:xlink="http://www.w3.org/1999/xlink"
   xmlns:sodipodi="http://sodipodi.sourceforge.net/DTD/sodipodi-0.dtd"
   xmlns:inkscape="http://www.inkscape.org/namespaces/inkscape"
   width="16"
   height="16"
   id="svg3408"
   sodipodi:version="0.32"
   inkscape:version="0.92.4 (unknown)"
   version="1.0"
   sodipodi:docname="sc_gluehorzaligncenter.svg"
   inkscape:output_extension="org.inkscape.output.svgz.inkscape"
   inkscape:export-filename="/home/rizmut/Dokumen/Rizmut/Github/libreoffice-style-karasa-jaga/build/next/cmd/sc_gluehorzaligncenter.png"
   inkscape:export-xdpi="96"
   inkscape:export-ydpi="96">
  <defs
     id="defs3410">
    <linearGradient
       inkscape:collect="always"
       id="linearGradient3310">
      <stop
         style="stop-color:#ffffff;stop-opacity:1;"
         offset="0"
         id="stop3312" />
      <stop
         style="stop-color:#ffffff;stop-opacity:0;"
         offset="1"
         id="stop3314" />
    </linearGradient>
    <linearGradient
       id="linearGradient7422">
      <stop
         id="stop7424"
         offset="0"
         style="stop-color:#b4b4b6;stop-opacity:1;" />
      <stop
         style="stop-color:#9c9ca1;stop-opacity:1;"
         offset="0.5"
         id="stop5348" />
      <stop
         style="stop-color:#cdcdd1;stop-opacity:1;"
         offset="1"
         id="stop7426" />
    </linearGradient>
    <linearGradient
       id="linearGradient2431">
      <stop
         id="stop2433"
         offset="0"
         style="stop-color:#ffffff;stop-opacity:1;" />
      <stop
         style="stop-color:#ffffff;stop-opacity:1;"
         offset="0.42597079"
         id="stop2435" />
      <stop
         style="stop-color:#f1f1f1;stop-opacity:1;"
         offset="0.5892781"
         id="stop2437" />
      <stop
         id="stop2439"
         offset="0.80219781"
         style="stop-color:#eaeaea;stop-opacity:1;" />
      <stop
         id="stop2441"
         offset="1"
         style="stop-color:#dfdfdf;stop-opacity:1;" />
    </linearGradient>
    <linearGradient
       id="linearGradient2399">
      <stop
         style="stop-color:#0968ef;stop-opacity:1;"
         offset="0"
         id="stop2401" />
      <stop
         style="stop-color:#aecffc;stop-opacity:1;"
         offset="1"
         id="stop2403" />
    </linearGradient>
    <linearGradient
       inkscape:collect="always"
       xlink:href="#linearGradient7422-3"
       id="linearGradient3287"
       gradientUnits="userSpaceOnUse"
       gradientTransform="matrix(0.06477706,0,0,0.1431311,-68.204115,-54.65389)"
       x1="399.77466"
       y1="1164.6696"
       x2="399.77466"
       y2="549.06134" />
    <linearGradient
       inkscape:collect="always"
       xlink:href="#linearGradient2431"
       id="linearGradient3289"
       gradientUnits="userSpaceOnUse"
       gradientTransform="matrix(0.5000001,0,0,1.0000001,-64.000001,-132)"
       x1="-63.999985"
       y1="135.99998"
       x2="124.09152"
       y2="27.999992" />
    <linearGradient
       inkscape:collect="always"
       xlink:href="#linearGradient3310"
       id="linearGradient3292"
       gradientUnits="userSpaceOnUse"
       gradientTransform="matrix(1.9227921,0,0,2.0000003,-98.656196,-16)"
       x1="102.31124"
       y1="-5.8302126"
       x2="74.330322"
       y2="32" />
    <linearGradient
       id="linearGradient7422-3">
      <stop
         id="stop7424-6"
         offset="0"
         style="stop-color:#a7a7a9;stop-opacity:1" />
      <stop
         style="stop-color:#7d7d83;stop-opacity:1"
         offset="0.5"
         id="stop5348-7" />
      <stop
         style="stop-color:#aaaab1;stop-opacity:1"
         offset="1"
         id="stop7426-5" />
    </linearGradient>
    <linearGradient
       inkscape:collect="always"
       xlink:href="#linearGradient2399"
       id="linearGradient1552"
       gradientUnits="userSpaceOnUse"
       gradientTransform="matrix(0.540151,-0.540151,0.48613592,0.48613592,109.29919,95.671562)"
       x1="-21.213205"
       y1="-80.024391"
       x2="25.455845"
       y2="-104.6518" />
  </defs>
  <sodipodi:namedview
     id="base"
     pagecolor="#ffffff"
     bordercolor="#666666"
     borderopacity="1.0"
     inkscape:pageopacity="0.0"
     inkscape:pageshadow="2"
     inkscape:zoom="3.9218752"
     inkscape:cx="-7.5168165"
     inkscape:cy="1.9644103"
     inkscape:document-units="px"
     inkscape:current-layer="g745"
     height="128px"
     width="128px"
     showborder="true"
     inkscape:showpageshadow="false"
     showgrid="true"
     inkscape:window-width="1366"
     inkscape:window-height="714"
     inkscape:window-x="0"
     inkscape:window-y="28"
     showguides="true"
     inkscape:guide-bbox="true"
     inkscape:window-maximized="1">
    <inkscape:grid
       id="GridFromPre046Settings"
       type="xygrid"
       originx="0"
       originy="0"
       spacingx="0.5"
       spacingy="0.5"
       color="#0000ff"
       empcolor="#0000ff"
       opacity="0.2"
       empopacity="0.4"
       empspacing="2" />
  </sodipodi:namedview>
  <metadata
     id="metadata3413">
    <rdf:RDF>
      <cc:Work
         rdf:about="">
        <dc:format>image/svg+xml</dc:format>
        <dc:type
           rdf:resource="http://purl.org/dc/dcmitype/StillImage" />
        <dc:title></dc:title>
      </cc:Work>
    </rdf:RDF>
  </metadata>
  <g
     inkscape:label="Livello 1"
     inkscape:groupmode="layer"
     id="layer1"
     transform="translate(0,-112)">
    <g
       id="g745"
       transform="matrix(0.125,0,0,0.125,0,112)">
      <rect
         transform="rotate(-90)"
         inkscape:export-ydpi="90"
         inkscape:export-xdpi="90"
         inkscape:export-filename="/home/pinheiro/Desktop/mock2.png"
         style="fill:url(#linearGradient3287);fill-opacity:1;fill-rule:nonzero;stroke:none;stroke-width:2;stroke-linecap:round;stroke-linejoin:round;stroke-miterlimit:4;stroke-dasharray:none;stroke-dashoffset:4;stroke-opacity:1"
         id="rect3281"
         width="112"
         height="112"
         x="-120"
         y="8"
         inkscape:r_cx="true"
         inkscape:r_cy="true"
         ry="3.632653"
         rx="3.6326528" />
      <rect
         transform="matrix(0,-1,-1,0,0,0)"
         ry="1.5999999"
         rx="1.5999999"
         y="-112"
         x="-112"
         height="96"
         width="96"
         id="rect3283"
         style="fill:url(#linearGradient3289);fill-opacity:1;fill-rule:evenodd;stroke:none;stroke-width:8;stroke-linecap:round;stroke-linejoin:round;stroke-miterlimit:4;stroke-dasharray:none;stroke-opacity:1" />
      <path
         inkscape:connector-curvature="0"
         id="path3285"
         d="M 77.279287,16 C 56.737011,34.856164 37.480525,55.251232 25.484076,80 H 77.820073 C 80.751312,56.306039 89.901821,34.901688 102.51592,16 Z"
         style="fill:url(#linearGradient3292);fill-opacity:1;fill-rule:evenodd;stroke:none;stroke-width:1.92279208px;stroke-linecap:butt;stroke-linejoin:miter;stroke-opacity:1" />
      <g
         transform="rotate(90,66,98)"
         id="g11383">
        <rect
           transform="matrix(0,1,1,0,0,0)"
           style="fill:#00bf00;fill-opacity:1;stroke:none;stroke-width:1.09877324"
           id="rect3366"
           width="8.5"
           height="52"
           x="100"
           y="28"
           rx="2.25"
           ry="0" />
        <rect
           transform="scale(-1,1)"
           rx="3.437501"
           y="92"
           x="-88"
           height="24"
           width="20.000004"
           id="rect1104"
           style="opacity:1;fill:#00bf00;fill-opacity:1;stroke:none;stroke-width:9.22378159;stroke-linecap:square;stroke-linejoin:round;stroke-miterlimit:4;stroke-dasharray:none;stroke-dashoffset:0;stroke-opacity:1" />
      </g>
      <path
         sodipodi:nodetypes="ccccccccccccc"
         inkscape:connector-curvature="0"
         id="rect248-6"
         d="M 76.970564,84.970562 60,68 43.02944,84.970563 37.372584,79.313708 54.343146,62.343146 37.372584,45.372582 43.02944,39.715728 60,56.686291 76.970564,39.715728 l 5.65686,5.656856 -16.970569,16.970562 16.970569,16.97056 z"
         style="fill:url(#linearGradient1552);fill-opacity:1;stroke:none;stroke-width:0.69832772" />
    </g>
  </g>
</svg>
